!!!OTL: 209. Den verlorenen Schatz suchen.
!!!ARE: Europa, Mitteleuropa, Deutschland, Brandenburg
!!!SCT: K2209
!!!TXL: @@DE
!!!YEM: Copyright 1995, estate of Helmut Schaffrath.
**kern	**text
*clefG2	*
*M2/4	*
*k[f#]	*
*G:	*
=1	=1
{8dd	Hier
8dd	iſt
4b	Gras,
=2	=2
8dd	dort
8dd	iſt
4b}	Gras,
=3	=3
{8ee	un-
8dd	-ter
8cc	mei-
8b	-nen
=4	=4
4b	Fü-
8a}	-ßen.
{8g	Jch
=5	=5
8g	hab'
8a	ver-
8b	-lo-
8cc	-ren
=6	=6
8dd	mei-
8dd	-nen
8dd}	Schatʒ,
{8b	ich
=7	=7
8ee	ſoll
8dd	ihn
8cc	wie-
8a	-der-
=8	=8
4a	-fin-
8g	-den.
8r}	.
==	==
!!!AGN: Kinder - Lied, Reigen, Tanz - Spiel, Brautwerbung
!!!ONB: ESAC (Essen Associative Code) Database: KINDER
!!!AMT: simple duple
!!!AIN: vox
!!!EED: Helmut Schaffrath
!!!EEV: 1.0
!!Brandenburg 1846.
!!!GTL: Zweites Buch. Kinderspiel: 2. Reigen und Tanzspiele. / D. Ringelreigen mit Wahl (Brautwerbung).
!!!URL-scan: https://archive.org/details/DeutschesKinderliedUndKinderspiel/page/482/mode/1up
!!!ENC: Anna Maria Matuszewska
!!!EEV: 2024/03/09
*-	*-
